public/assets/images/utils/Linkedin.svg

<svg width="18" height="18" viewBox="0 0 18 18" fill="none" xmlns="http://www.w3.org/2000/svg">
<path fill-rule="evenodd" clip-rule="evenodd" d="M1.33333 0C0.59696 0 0 0.59696 0 1.33333V16C0 16.7364 0.59696 17.3333 1.33333 17.3333H16C16.7364 17.3333 17.3333 16.7364 17.3333 16V1.33333C17.3333 0.59696 16.7364 0 16 0H1.33333ZM2.73333 6.66667H5.26667V14.6667H2.73333V6.66667ZM5.43333 4.00667C5.43333 4.79828 4.79161 5.44 4 5.44C3.2084 5.44 2.56667 4.79828 2.56667 4.00667C2.56667 3.21505 3.2084 2.57333 4 2.57333C4.79161 2.57333 5.43333 3.21505 5.43333 4.00667ZM14.6667 9.80951C14.6667 7.40277 13.1112 6.46711 11.566 6.46711C11.06 6.44217 10.5563 6.54825 10.105 6.77476C9.76229 6.94676 9.40353 7.34031 9.12688 8.02471H9.05572V6.66725H6.66667V14.6729H9.20821V10.4149C9.17147 9.97884 9.31103 9.41523 9.59655 9.07983C9.88208 8.74443 10.2905 8.66433 10.6002 8.62365H10.6968C11.505 8.62365 12.1048 9.12401 12.1048 10.3849V14.6729H14.6463L14.6667 9.80951Z" fill="#65636D"/>
</svg>

<svg xmlns="http://www.w3.org/2000/svg" fill="none" viewBox="0 0 18 18"><path fill="#65636d" fill-rule="evenodd" d="M1.333 0C.597 0 0 .597 0 1.333V16c0 .736.597 1.333 1.333 1.333H16c.736 0 1.333-.597 1.333-1.333V1.333C17.333.597 16.736 0 16 0zm1.4 6.667h2.534v8H2.733zm2.7-2.66a1.433 1.433 0 1 1-2.866 0 1.433 1.433 0 0 1 2.866 0m9.234 5.803c0-2.407-1.556-3.343-3.101-3.343a2.94 2.94 0 0 0-1.461.308c-.343.172-.701.565-.978 1.25h-.071V6.667h-2.39v8.006h2.542v-4.258c-.037-.436.103-1 .389-1.335.285-.336.694-.416 1.003-.456h.097c.808 0 1.408.5 1.408 1.76v4.289h2.541z" clip-rule="evenodd"/></svg>
